X:1
T:G Major Stephen Jenks, 1803
T:Anonymous, before 1757 664. 66. 64.
T:Trinity
T:Transcribed from Jenks and Griswold, The American Compiler, 1803.
%%score [ 1 2 3 4 ]
L:1/8
Q:1/4=80
M:3/4
K:G
V:1 treble nm="Tr." snm="Tr."
V:2 treble nm="C." snm="C."
V:3 treble-8 nm="T." snm="T."
V:4 bass nm="B." snm="B."
V:1
 B2 | (d>c B2) G2 | c4 A2 | B4 dg | g4 dB | c4 A2 | G6 | (3ABc B2 d2 | d6 | d2 d2 d2 | B3 B B2 | %11
w: 1.~Come,|thou * * Al-|migh- ty|King, Help *|us thy *|name to|sing,|Help * * us to|praise!|Fa- ther all|glo- ri- ous,|
"^O'er    all     vic   –   tor     –    i  –   ous," z6 | z6 | e2 c2 A2 | d3 d d2 | B2 B2 d2 | %16
w: ||Come and reign|o- ver us,|Come and reign|
 e2 d2 G2 | c2 e2 d2 | [Bd]6 |] %19
w: o- ver us,|An- cient of|days!|
V:2
 D2 | G4 G2 | A4 A2 | G4 G2 | B4 G2 | c4 A2 | B6 | EG F2 A2 | B6 | %9
w: 2.~Je-|sus, our|Lord, a-|rise, Scat-|ter our|e- ne-|mies,|And * make them|fall!|
"^Let     thine  Al    –      migh–ty  aid," z6 | z6 | G2 F2 G2 | B3 B B2 | E2 E2 A2 | F3 F F2 | %15
w: ||Our sure de-|fense be made,|Our souls on|thee be stayed,|
 G2 G2 F2 | c2 A2 B2 | G2 G2 F2 | G6 |] %19
w: Our souls on|thee be stayed,|Lord, hear our|call!|
V:3
 G2 | (B>c d2) g2 | e4 f2 | g4 Bd | d4 gd | e4 dB | [dg]6 | (3edc B>G A2 | G6 | %9
w: 3.~Come,|thou * * in-|car- nate|word, Gird *|on thy *|migh- ty *|sword,|Our * * prayer * at-|tend!|
"^Come  and   thy           peo–ple  bless," z6 | z6 | d2 B2 d2 | g3 g g2 | %13
w: ||And give thy|word suc- cess,|
"^Spi   –   rit    of            ho   –   li   –   ness," z6 | z6 | G2 B2 d2 | e>g fa g2 | %17
w: ||Spi- rit of|ho- * li- * ness,|
 ec B2 (3AGF | G6 |] %19
w: On * us de- * *|scend!|
V:4
 G,2 | G,4 B,2 | A,4 D,2 | G,4 G,2 | G,4 G,2 | C,4 D,2 | G,6 | C2 D2 D,2 | G,6 | D,2 D,2 D,2 | %10
w: 4.~Come,|ho- ly|com- for-|ter, Thy|sa- cred|wit- ness|bear,|In this glad|hour!|Thou who al-|
w: 5.~To|the great|one in|three, E-|ter- nal|prai- ses|be|Hence ev- er-|more!|His sove- reign|
 G,3 G, G,2 | %11
w: migh- ty art,|
w: ma- jes- ty|
"^May      we    in        glo  –   ry    see,""^De  –  scend in       eve  –  ry   heart," z6 | %12
w: |
w: |
 z6 | %13
w: |
w: |
"^And     to         e     –   ter  –   ni  –   ty,""^And    ne'er  from     us        de  – part,""^________________________________________________________________\nEdited by B. C. Johnston, 2016\n   1. Measure 3, \nTreble\n: C# changed to C.\n   2. Measure 6, Treble: C# changed to C, as in Counter and Bass." z6 | %14
w: |
w: |
 z6 | G,2 G,2 D,2 | C,2 D,2 G,2 | %17
w: |And ne'er from|us de- part,|
w: |And to e-|ter- ni- ty|
"^________________________________________________________________\nEdited by B. C. Johnston, 2016\n   1. Measure 3, \nTreble\n: C# changed to C.\n   2. Measure 6, Treble: C# changed to C, as in Counter and Bass." C,2 E,C, D,2 | %18
w: Spi- rit * of|
w: Love and * a-|
 G,,6 |] %19
w: power.|
w: dore.|

